Newaita-dark/actions/32/view-fullscreen.svg

<?xml version="1.0" encoding="UTF-8"?>
<svg xmlns="http://www.w3.org/2000/svg" xmlns:xlink="http://www.w3.org/1999/xlink" width="32pt" height="32pt" viewBox="0 0 32 32" version="1.1">
<g id="surface1">
<path style=" stroke:none;fill-rule:nonzero;fill:rgb(74.117649%,74.117649%,74.117649%);fill-opacity:1;" d="M 7.9375 6.863281 C 7.207031 6.863281 6.613281 7.457031 6.613281 8.1875 L 6.613281 24.066406 C 6.613281 24.796875 7.207031 25.386719 7.9375 25.386719 L 23.816406 25.386719 C 24.546875 25.386719 25.136719 24.796875 25.136719 24.066406 L 25.136719 8.1875 C 25.136719 7.457031 24.546875 6.863281 23.816406 6.863281 Z M 8.601562 12.820312 L 23.152344 12.820312 L 23.152344 22.410156 C 23.152344 22.960938 22.710938 23.402344 22.160156 23.402344 L 9.59375 23.402344 C 9.042969 23.402344 8.601562 22.960938 8.601562 22.410156 Z M 8.601562 12.820312 "/>
<path style=" stroke:none;fill-rule:nonzero;fill:rgb(14.901961%,77.64706%,85.490197%);fill-opacity:0.996078;" d="M 3.96875 1.574219 C 2.503906 1.574219 1.324219 2.753906 1.324219 4.21875 L 1.324219 8.1875 C 1.324219 8.554688 1.757812 8.851562 2.296875 8.851562 L 2.335938 8.851562 C 2.875 8.851562 3.308594 8.554688 3.308594 8.1875 L 3.308594 4.878906 C 3.308594 4.148438 3.898438 3.558594 4.628906 3.558594 L 7.9375 3.558594 C 8.304688 3.558594 8.601562 3.113281 8.601562 2.566406 C 8.601562 2.015625 8.304688 1.574219 7.9375 1.574219 Z M 23.816406 1.574219 C 23.449219 1.574219 23.152344 2.015625 23.152344 2.566406 C 23.152344 3.113281 23.449219 3.558594 23.816406 3.558594 L 27.121094 3.558594 C 27.855469 3.558594 28.445312 4.148438 28.445312 4.878906 L 28.445312 8.1875 C 28.445312 8.554688 28.886719 8.851562 29.4375 8.851562 C 29.988281 8.851562 30.429688 8.554688 30.429688 8.1875 L 30.429688 4.21875 C 30.429688 2.753906 29.25 1.574219 27.785156 1.574219 Z M 2.296875 23.402344 C 1.757812 23.402344 1.324219 23.699219 1.324219 24.066406 L 1.324219 28.035156 C 1.324219 29.5 2.503906 30.679688 3.96875 30.679688 L 7.9375 30.679688 C 8.304688 30.679688 8.601562 30.238281 8.601562 29.6875 C 8.601562 29.136719 8.304688 28.695312 7.9375 28.695312 L 4.628906 28.695312 C 3.898438 28.695312 3.308594 28.105469 3.308594 27.371094 L 3.308594 24.066406 C 3.308594 23.699219 2.875 23.402344 2.335938 23.402344 Z M 29.4375 23.402344 C 28.886719 23.402344 28.445312 23.699219 28.445312 24.066406 L 28.445312 27.371094 C 28.445312 28.105469 27.855469 28.695312 27.121094 28.695312 L 23.816406 28.695312 C 23.449219 28.695312 23.152344 29.136719 23.152344 29.6875 C 23.152344 30.238281 23.449219 30.679688 23.816406 30.679688 L 27.785156 30.679688 C 29.25 30.679688 30.429688 29.5 30.429688 28.035156 L 30.429688 24.066406 C 30.429688 23.699219 29.988281 23.402344 29.4375 23.402344 Z M 29.4375 23.402344 "/>
</g>
</svg>

<svg xmlns="http://www.w3.org/2000/svg" width="32pt" height="32pt" viewBox="0 0 32 32"><path d="M7.938 6.863c-.731 0-1.325.594-1.325 1.324v15.88c0 .73.594 1.32 1.324 1.32h15.88c.73 0 1.32-.59 1.32-1.32V8.186c0-.73-.59-1.324-1.32-1.324zm.664 5.957h14.55v9.59c0 .55-.441.992-.992.992H9.594a.989.989 0 0 1-.992-.992zm0 0" fill="#bdbdbd"/><path d="M3.969 1.574A2.639 2.639 0 0 0 1.324 4.22v3.968c0 .368.434.665.973.665h.039c.539 0 .973-.297.973-.665V4.88c0-.73.59-1.32 1.32-1.32h3.309c.367 0 .664-.446.664-.993 0-.55-.297-.992-.665-.992zm19.847 0c-.367 0-.664.442-.664.992 0 .547.297.993.664.993h3.305c.734 0 1.324.59 1.324 1.32v3.309c0 .367.442.664.992.664.551 0 .993-.297.993-.665V4.22a2.639 2.639 0 0 0-2.645-2.645zM2.296 23.402c-.538 0-.972.297-.972.664v3.97A2.639 2.639 0 0 0 3.97 30.68h3.969c.367 0 .664-.442.664-.992 0-.551-.297-.993-.665-.993H4.63c-.73 0-1.32-.59-1.32-1.324v-3.305c0-.367-.434-.664-.973-.664zm27.142 0c-.551 0-.993.297-.993.664v3.305a1.32 1.32 0 0 1-1.324 1.324h-3.305c-.367 0-.664.442-.664.992 0 .551.297.993.664.993h3.97a2.639 2.639 0 0 0 2.644-2.645v-3.969c0-.367-.442-.664-.992-.664zm0 0" fill="#26c6da" fill-opacity=".996"/></svg>
